X:2475
T:Hare in the Corn, The
T:Frost Is All Under, The
O:england
S:Planxty, 2nd time through
N:1st in set with The Frost Is All Over and The Gander in the Pratie Hole
D:The Planxty Collection, Shanachie 79012
M:6/8
L:1/8
K:D
|:F2A AFA|BdB AFE|~F3 EDE|F2D ~D3|
F2A AFA|BdB AFA|Bcd edA|ded d3:|
|:f3 fed|g2e ede|f3 fed|faa bag|
f3 fed|g2e edB|A (3Bcd edA|ded d3||


